X: 997
T: Paddy's Resource
T: Tiosgnad Paidin
R:double jig
S:997 O'Neill's Music of Ireland
N:a tilde has been used to denote shakes and trills
B:O'Neill's 997
Z:Transcribed by Robert Thorpe (thorpe@skep.com)
Z:ABCMUS 1.0
M:6/8
K:G
G | G>AG DB,D | GBd ~e2 d | g>BB {c}-BAG | c>EE ~E2 D |
  | G>AG DB,D | GBd ~e2 d | g>BB {c}-BAG | cEF G2 :|
G | GBd GBd | d>cB B>AG | GBd e>fg | d>cB ~A2 G |
  | GBd g>fe | dcB AGF | GAG DB,d | BGG G2 :|


